material/.icons/material/drag.svg

<svg xmlns="http://www.w3.org/2000/svg" viewBox="0 0 24 24"><path d="M7 19v-2h2v2H7m4 0v-2h2v2h-2m4 0v-2h2v2h-2m-8-4v-2h2v2H7m4 0v-2h2v2h-2m4 0v-2h2v2h-2m-8-4V9h2v2H7m4 0V9h2v2h-2m4 0V9h2v2h-2M7 7V5h2v2H7m4 0V5h2v2h-2m4 0V5h2v2h-2z"/></svg>

<?xml version="1.0" encoding="UTF-8"?><!DOCTYPE svg PUBLIC "-//W3C//DTD SVG 1.1//EN" "http://www.w3.org/Graphics/SVG/1.1/DTD/svg11.dtd"><svg xmlns="http://www.w3.org/2000/svg" xmlns:xlink="http://www.w3.org/1999/xlink" version="1.1" id="mdi-drag" width="24" height="24" viewBox="0 0 24 24"><path d="M7,19V17H9V19H7M11,19V17H13V19H11M15,19V17H17V19H15M7,15V13H9V15H7M11,15V13H13V15H11M15,15V13H17V15H15M7,11V9H9V11H7M11,11V9H13V11H11M15,11V9H17V11H15M7,7V5H9V7H7M11,7V5H13V7H11M15,7V5H17V7H15Z" /></svg>
